X: 3
T: The High Road To Glin
R: reel
M: 4/4
L: 1/8
K: Dmaj
DE |: F2AF F2AF |F2AF EA,~A,2 |DFF2 DEFA |B2AF EFDE |
F2AF F2AF | F2AF EA,~A,2|DFF2 DEFA | [1 BdAF D3 E :| [2 BdAF D2 de ||
|:f2df efdf | afef dBB2 | f2fa baa2 |bfaf efde |
fbaf egfe | dfed BcdB |AFF2 DEFA | [1 BdAF D2 de :| [2 BdAF D4 |]
